X:1
T:Waltz 2
T:Dmitrij Šostakovič Trans. for bass by Fredde 
L:1/8
Q:1/4=178
M:3/4
K:F
V:1 bass-8 nm="Contrabass"
V:1
|: D,6 | A,,6 | D,6 | A,,6 |"^A" D,6 | A,,6 | D,6 | A,,6 | D,6 | A,,6 | E,6 | A,,6 | E,6 | A,,6 | %14
 E,6 | A,,6 | E,6 | A,,6 | D,6 | A,,6 | D,6 | A,,6 | G,,6 | D,6 | C,6 | C,6 | F,4 z2 | B,,6 | %28
 A,,6 | B,,6 | A,,6 | B,,6 | A,,6 | B,,6 | A,,6 | B,,6 | A,,6 | A,,6 :| D,2 A,2 F,2 | %39
 D,2 z2 !fermata!C,2 |:"^B" F,6 | C,6 | F,6 | C,6 | G,6 | C,6 | F,6 | C,6 |1 D,6 | D,6 | G,6 | %51
 B,,6 | F,6 | C,6 | F,6 | !fermata!C,6 :|2 F,6 | _E,6 | D,6 | _D,6 | C,6 | C,6 | F,6 | F,6 |: %64
"^C" B,,6 | F,6 | B,,6 | F,6 | C,6 | F,6 | C,6 | F,6 | B,,6 | F,6 | B,,6 | F,6 |1 _E,6 | C,6 | %78
 C,6 | F,6 :|2 _E,6 | D,6 | C,6 | F,6 || !fermata!G,,6!D.C.! | D,2 z2 A,,2 | D,2 z4 |] %87

